X:65
T:Tuttle's
M:2/2
L:1/8
K:D dor
"Dm"D2 DE FEFG|AcGc Addc|D^CDE FAdA|{B}AGGE "C"{F}EDDC|
"Dm"D2 DE FEFG|AcGc Adde|"Bb"fdec dcAd|"C"cAGE "D"{F}EDDC:|
|:"Dm"d2 dB "C"c2 cc|"Dm"AddB "C"cAGA|"Dm"d2 dB "C"c2 cA|"Am"GEcE "Dm"ED
D2|"Dm"d2 dB "C"c2 cc|"Dm"AddB "C"cAGA|"Bb"fdec dcAd|"C"cAGE "D"EDDC:|
